src/24/actions/distribute-horizontal-node.svg

<svg xmlns="http://www.w3.org/2000/svg" width="24" height="24" viewBox="0 0 24 24">
 <defs>
  <style id="current-color-scheme" type="text/css">
   .ColorScheme-Text { color:#565656; } .ColorScheme-Highlight { color:#5294e2; }
  </style>
 </defs>
 <path style="fill:currentColor" class="ColorScheme-Text" d="M 3.0039062 0 L 3.0039062 10 L 1.0058594 10 L 1.0058594 11.994141 L 0.50585938 11.994141 L 0.005859375 11.994141 L 0.005859375 12.994141 L 0.50585938 12.994141 L 1.0058594 12.994141 L 1.0058594 15 L 2.546875 15 C 2.325345 16.4595 2.1067444 17.905987 1.8339844 19.179688 C 1.4351544 21.041888 0.8709275 22.516875 0.1796875 23.109375 A 0.49977 0.49988 0 0 0 0 23.505859 A 0.49977 0.49988 0 0 0 0.83007812 23.869141 C 1.8880781 22.962141 2.3994 21.317672 2.8125 19.388672 C 3.1052 18.021672 3.3303937 16.509 3.5585938 15 L 6.0039062 15 L 6.0039062 12.994141 L 9.0039062 12.994141 L 9.0039062 15 L 10.443359 15 C 10.444015 15.004 10.444612 15.007699 10.445312 15.011719 C 10.791723 17.121619 11.244096 19.239369 12.128906 20.917969 C 13.013716 22.596569 14.412044 23.851381 16.464844 23.988281 C 17.279804 24.042281 18.005716 23.740478 18.541016 23.205078 C 19.076246 22.669678 19.447021 21.930634 19.738281 21.052734 C 20.276281 19.432734 20.537047 17.305 20.748047 15 L 23 15 L 23 12.994141 L 23.996094 12.994141 L 23.996094 12.494141 L 23.996094 11.994141 L 23.496094 11.994141 L 23 11.994141 L 23 10 L 21.183594 10 C 21.287334 8.8909 21.402444 7.7940469 21.558594 6.7480469 A 0.49977 0.49988 0 0 0 21 6.1640625 L 21 0 L 20 0 L 20 2.5 L 20 10 L 18.001953 10 L 18.001953 11.994141 L 14.001953 11.994141 L 14.001953 10 L 12.001953 10 L 12.001953 2.5 L 12.001953 0 L 11.001953 0 L 11.001953 2.5 L 11.001953 10 L 10.662109 10 C 10.594109 9.6455 10.526266 9.2920437 10.447266 8.9648438 C 10.242266 8.1154438 9.9940188 7.3667188 9.6367188 6.7617188 C 9.2795187 6.1567188 8.7820469 5.6765188 8.1230469 5.5117188 C 7.2859469 5.3025187 6.5099062 5.4034313 5.8789062 5.7695312 C 5.2479062 6.1357313 4.7731781 6.732625 4.3925781 7.453125 C 4.2480781 7.726625 4.1255062 8.0360031 4.0039062 8.3457031 L 4.0039062 2.5 L 4.0039062 0 L 3.0039062 0 z M 4.0039062 2.5 L 6.0039062 4.03125 L 6.0039062 3 L 9.0039062 3 L 9.0039062 4 L 11.001953 2.5 L 9.0039062 1 L 9.0039062 2 L 6.0039062 2 L 6.0039062 1.03125 L 4.0039062 2.5 z M 12.001953 2.5 L 14.001953 4.03125 L 14.001953 3 L 18.001953 3 L 18.001953 4 L 20 2.5 L 18.001953 1 L 18.001953 2 L 14.001953 2 L 14.001953 1.03125 L 12.001953 2.5 z M 7.4355469 6.40625 C 7.5743469 6.417922 7.7214994 6.4425969 7.8808594 6.4824219 C 8.2214494 6.5674219 8.5040137 6.8067312 8.7773438 7.2695312 C 9.0506638 7.7324313 9.2836125 8.4010187 9.4765625 9.1992188 C 9.5367625 9.4479187 9.5886781 9.7284 9.6425781 10 L 9.0039062 10 L 9.0039062 11.994141 L 6.0039062 11.994141 L 6.0039062 10 L 4.515625 10 C 4.733725 9.1998 4.9805438 8.4820219 5.2773438 7.9199219 C 5.6027438 7.3039219 5.9730594 6.8713656 6.3808594 6.6347656 C 6.6866594 6.4571656 7.0191469 6.37125 7.4355469 6.40625 z M 14.001953 12.994141 L 18.001953 12.994141 L 18.001953 15 L 19.742188 15 C 19.533027 17.2488 19.268986 19.297381 18.791016 20.738281 C 18.528376 21.529981 18.200984 22.130947 17.833984 22.498047 C 17.466984 22.865247 17.08758 23.027234 16.53125 22.990234 C 14.83575 22.877234 13.798019 21.944925 13.011719 20.453125 C 12.244719 18.998125 11.796984 17.023 11.458984 15 L 14.001953 15 L 14.001953 12.994141 z"/>
</svg>

<svg xmlns="http://www.w3.org/2000/svg" width="24" height="24"><defs><style id="current-color-scheme" type="text/css"></style></defs><path d="M3.004 0v10H1.006v1.994h-1v1h1V15h1.54c-.22 1.46-.44 2.906-.712 4.18-.399 1.862-.963 3.337-1.654 3.93a.5.5 0 0 0-.18.396.5.5 0 0 0 .83.363c1.058-.907 1.57-2.551 1.982-4.48.293-1.367.518-2.88.747-4.389h2.445v-2.006h3V15h1.44l.001.012c.347 2.11.8 4.227 1.684 5.906.885 1.679 2.283 2.933 4.336 3.07a2.646 2.646 0 0 0 2.076-.783c.535-.535.906-1.274 1.197-2.152.538-1.62.799-3.748 1.01-6.053H23v-2.006h.996v-1H23V10h-1.816c.103-1.11.218-2.206.375-3.252A.5.5 0 0 0 21 6.164V0h-1v10h-1.998v1.994h-4V10h-2V0h-1v10h-.34a22.828 22.828 0 0 0-.215-1.035c-.205-.85-.453-1.598-.81-2.203-.357-.605-.855-1.085-1.514-1.25-.837-.21-1.613-.109-2.244.258-.631.366-1.106.963-1.486 1.683a8.916 8.916 0 0 0-.39.893V0h-1zm1 2.5l2 1.531V3h3v1l1.998-1.5L9.004 1v1h-3v-.969l-2 1.469zm7.998 0l2 1.531V3h4v1L20 2.5 18.002 1v1h-4v-.969l-2 1.469zM7.436 6.406c.138.012.285.037.445.076.34.085.623.325.896.788.274.462.507 1.131.7 1.93.06.248.112.528.166.8h-.64v1.994h-3V10H4.517c.218-.8.465-1.518.761-2.08.326-.616.696-1.049 1.104-1.285a1.72 1.72 0 0 1 1.055-.229zm6.566 6.588h4V15h1.74c-.209 2.249-.473 4.297-.951 5.738-.263.792-.59 1.393-.957 1.76s-.746.53-1.303.492c-1.695-.113-2.733-1.045-3.52-2.537-.766-1.455-1.214-3.43-1.552-5.453h2.543v-2.006z" fill="currentColor" color="#565656"/></svg>
